!!! OTL: Berkowitz14
!!! Chapter: 1
!!! Section: I
!!! Page: 7
!!! Mode: 
!!! Encoder: DJB
**kern
*staff1
*I"Piano
=1-
*clefG2
*k[b-e-a-]
*E-:
*M3/4
4e-/
8e-/L
8f/J
8g/L
8a-/J
=2
4b-\
4a-/
4g/
=3
4f/
8f/L
8g/J
8a-/L
8b-/J
=4
2.cc\
=5
4b-\
8a-/L
8g/J
8f/L
8e-/J
=6
4d/
4e-/
4f/
=7
2g/
4f/
=8
2.e-/
==
*-
